Sources/FrostedUI/Resources/Icons.xcassets/bold16.imageset/bold-16.svg

<svg width="16" height="16" viewBox="0 0 16 16" fill="none" xmlns="http://www.w3.org/2000/svg" data-fui-icon="true">
  <path
    d="M8.83496 1.75C10.7218 1.75016 12.251 3.28011 12.251 5.16699V5.33301C12.251 6.27086 11.8726 7.1199 11.2607 7.7373C12.2538 8.33498 12.918 9.42354 12.918 10.667V10.833C12.918 12.72 11.3879 14.25 9.50098 14.25H4.49512C3.71272 14.25 3.07812 13.6154 3.07812 12.833V3.16699C3.07812 2.3846 3.71271 1.75 4.49512 1.75H8.83496ZM4.57812 12.75H9.50098C10.5595 12.75 11.418 11.8915 11.418 10.833V10.667C11.418 9.60847 10.5595 8.75 9.50098 8.75H4.57812V12.75ZM4.57812 7.25H8.83496C9.89334 7.24984 10.751 6.39143 10.751 5.33301V5.16699C10.751 4.10855 9.89335 3.25016 8.83496 3.25H4.57812V7.25Z"
    fill="currentColor"
  />
</svg>

<svg xmlns="http://www.w3.org/2000/svg" width="16" height="16" fill="none" data-fui-icon="true" viewBox="0 0 16 16"><path fill="currentColor" d="M8.835 1.75a3.417 3.417 0 0 1 3.416 3.417v.166c0 .938-.378 1.787-.99 2.404a3.42 3.42 0 0 1 1.657 2.93v.166a3.417 3.417 0 0 1-3.417 3.417H4.495a1.417 1.417 0 0 1-1.417-1.417V3.167c0-.782.635-1.417 1.417-1.417zm-4.257 11h4.923a1.917 1.917 0 0 0 1.917-1.917v-.166A1.917 1.917 0 0 0 9.501 8.75H4.578zm0-5.5h4.257a1.917 1.917 0 0 0 1.916-1.917v-.166A1.917 1.917 0 0 0 8.835 3.25H4.578z"/></svg>
